X:1     %Music
T:The Hostess's Daughter
B: Purslow, F, (1972), The Constant Lovers, EDFS, London
S:Ishmael Cornick, Burstock, Dorset, June 1906.
Z:Hammond D 560.  
F:http://www.folkinfo.org/songs
M:5/4     %Meter
L:1/8     %
K:G
D2 |G2 B2 (D2F2) A2 |d2 d2 (d2c2) 
w:Whan first to Lon_ don town I came_
A2 |G2 B2 E2 F2 A2 | c2 B2 G4
w: I took my lodg-ing all at some inn,
 B2 |c2 d2 (e2A2) A2 |B2 c2 d4 
w: For full five months_ I did re-main, 
e2 |d2 cB (AB) c2 d2 | (cB) (AG) E2 D2
w:But be-ing a stran_ ger I fell_ in_ dan-ger,
 D2 |G2 B2 (D2F2) A2 |c2 B2 G4  |]
w: By do-ing so,_ by do-ing so.  